X: 100182
M: 6/8
L: 1/8
Q: "Moderato."
K: C
uE !segno!|\
|: vceg ceg | (c/B/c/d/e/f/) gec | cec' (a/g/f/e/d/c/) | deg {ba^g}a2c' |\
ceg ceg | (c/B/c/d/e/f/) gec | (f/e/d/c/B/A/) {A}(GF/E/D/C/) | DEG A2ue |
ceg ceg | (c/B/c/d/e/f/) gec | cec' (a/g/f/e/d/c/) | deg {ba^g}a2uc' |\
ceg (e<c)ue | (d<B)vd c>d{cd}He | CEE EAc | {Bc}B>A^G (.A2.c) |]



